icon/pk/women.svg

<svg viewBox="0 0 48 48" fill="none" xmlns="http://www.w3.org/2000/svg" height="1em" width="1em">
  <path d="M19.2252 6.36909C16.0422 6.36909 11.1616 8.207 12.8592 19.5832C12.8848 19.7545 12.9184 19.9407 12.9543 20.1395C13.2635 21.8513 13.7419 24.4998 10.7 26.6839C12.7689 28.3816 15.7155 30.0792 19.2965 30.8143C19.1521 31.6597 18.9342 32.6118 18.7655 33.2284C18.4735 34.2956 17.8639 35.0527 16.774 35.3755C15.8142 35.6598 14.8085 35.8899 13.7777 36.1257C13.513 36.1862 13.2465 36.2472 12.9789 36.3095C11.6928 36.6089 10.3834 36.9394 9.22177 37.4079C8.05819 37.8772 6.97581 38.5107 6.19417 39.4553C5.3976 40.4179 4.9723 41.6322 5.0014 43.1495C5.01046 43.6217 5.41498 44 5.91088 44H42.0891C42.5849 44 42.9894 43.6218 42.9986 43.1496C43.028 41.6323 42.6028 40.418 41.8062 39.4553C41.0246 38.5107 39.9422 37.8772 38.7786 37.4079C37.6169 36.9394 36.3073 36.6089 35.0212 36.3095C34.7537 36.2472 34.4874 36.1863 34.2227 36.1257C33.1917 35.8899 32.1859 35.6599 31.226 35.3755C30.1361 35.0527 29.5264 34.2956 29.2345 33.2284C29.0338 32.4948 28.7626 31.2865 28.6288 30.3477C31.367 29.5236 34.2768 28.0434 37.3 25.6777L37.2857 25.664C35.8673 24.3063 33.2071 21.7596 33.0181 15.7163C33.0181 7.39375 27.7124 0.0786526 19.2252 6.36909Z" fill="#2F88FF" stroke="black" stroke-width="4" stroke-linejoin="round"/>
</svg>

<svg width="48" height="48" fill="none" xmlns="http://www.w3.org/2000/svg"><path d="M19.225 6.37c-3.183 0-8.063 1.837-6.366 13.213.026.172.06.358.095.557.31 1.711.788 4.36-2.254 6.544 2.069 1.698 5.016 3.395 8.597 4.13a27.834 27.834 0 0 1-.532 2.414c-.291 1.068-.901 1.825-1.991 2.148-.96.284-1.966.514-2.996.75-.265.06-.532.121-.8.184-1.285.299-2.595.63-3.756 1.098-1.164.47-2.246 1.103-3.028 2.047-.796.963-1.222 2.177-1.193 3.695.01.472.414.85.91.85h36.178c.496 0 .9-.378.91-.85.029-1.518-.396-2.732-1.193-3.695-.781-.944-1.864-1.578-3.027-2.047-1.162-.469-2.472-.8-3.758-1.099l-.798-.183c-1.031-.236-2.037-.466-2.997-.75-1.09-.323-1.7-1.08-1.991-2.148a26.78 26.78 0 0 1-.606-2.88c2.738-.824 5.648-2.305 8.671-4.67l-.014-.014c-1.419-1.358-4.079-3.904-4.268-9.948 0-8.322-5.306-15.637-13.793-9.347Z" fill="#2F88FF" stroke="#000" stroke-width="4" stroke-linejoin="round"/></svg>
